images/Photography.svg

<svg xmlns="http://www.w3.org/2000/svg" width="649.8" height="649.8" viewBox="-286 72.2 649.8 649.8" enable-background="new -286 72.2 649.8 649.8"><style type="text/css">.st0{fill:none;stroke:#858484;stroke-width:10;stroke-miterlimit:10;} .st1{fill:#888686;} .st2{fill:#A3A3A3;} .st3{fill:#BFBFBF;} .st4{fill:#858484;}</style><circle class="st0" cx="38.9" cy="396.1" r="317.9"/><path class="st1" d="M-13.4 183.1s101.6-36.2 186.4 43.1c0 0-44.5-2.8-171.1 114.1 0 0-44.5-68.1-15.3-157.2zm211.4 63.6s81.6 70.4 54.6 183.4c0 0-19.6-40.1-183.8-92.4.1 0 37.4-72.4 129.2-91z"/><path class="st2" d="M249.4 456.1s-18.8 106.2-129.7 140.7c0 0 24.5-37.3-14.5-205.2 0 0 81.3-4.9 144.2 64.5z"/><path class="st3" d="M87.1 610.7s-101.8 35.4-186.1-44.6c0 0 44.5 3.1 172-112.8 0 .1 44 68.6 14.1 157.4zm-206.7-62.1s-80.5-71.7-51.7-184.2c0 0 18.9 40.4 182.3 95.3 0-.1-38.4 71.7-130.6 88.9z"/><path class="st4" d="M-169.8 330.8s22.1-105.5 134-136.6c0 0-25.6 36.5 8.1 205.5.1 0-81.3 2.5-142.1-68.9z"/></svg>

<?xml version="1.0" encoding="utf-8"?>
<!-- Generator: Adobe Illustrator 19.1.0, SVG Export Plug-In . SVG Version: 6.00 Build 0)  -->
<!DOCTYPE svg PUBLIC "-//W3C//DTD SVG 1.1//EN" "http://www.w3.org/Graphics/SVG/1.1/DTD/svg11.dtd">
<svg version="1.1" id="Layer_1" xmlns="http://www.w3.org/2000/svg" xmlns:xlink="http://www.w3.org/1999/xlink" x="0px" y="0px"
	 width="649.8px" height="649.8px" viewBox="-286 72.2 649.8 649.8" style="enable-background:new -286 72.2 649.8 649.8;"
	 xml:space="preserve">
<style type="text/css">
	.st0{fill:none;stroke:#858484;stroke-width:10;stroke-miterlimit:10;}
	.st1{fill:#888686;}
	.st2{fill:#A3A3A3;}
	.st3{fill:#BFBFBF;}
	.st4{fill:#858484;}
</style>
<circle class="st0" cx="38.9" cy="396.1" r="317.9"/>
<path class="st1" d="M-13.4,183.1c0,0,101.6-36.2,186.4,43.1c0,0-44.5-2.8-171.1,114.1C1.9,340.3-42.6,272.2-13.4,183.1L-13.4,183.1
	z M198,246.7c0,0,81.6,70.4,54.6,183.4c0,0-19.6-40.1-183.8-92.4C68.9,337.7,106.2,265.3,198,246.7L198,246.7z"/>
<path class="st2" d="M249.4,456.1c0,0-18.8,106.2-129.7,140.7c0,0,24.5-37.3-14.5-205.2C105.2,391.6,186.5,386.7,249.4,456.1
	L249.4,456.1z"/>
<path class="st3" d="M87.1,610.7c0,0-101.8,35.4-186.1-44.6c0,0,44.5,3.1,172-112.8C73,453.4,117,521.9,87.1,610.7L87.1,610.7z
	 M-119.6,548.6c0,0-80.5-71.7-51.7-184.2c0,0,18.9,40.4,182.3,95.3C11,459.6-27.4,531.4-119.6,548.6L-119.6,548.6z"/>
<path class="st4" d="M-169.8,330.8c0,0,22.1-105.5,134-136.6c0,0-25.6,36.5,8.1,205.5C-27.6,399.7-109,402.2-169.8,330.8z"/>
</svg>
